sources/design/Outline/percent.svg

<svg:svg xmlns:cc="http://creativecommons.org/ns#" xmlns:dc="http://purl.org/dc/elements/1.1/" xmlns:inkscape="http://www.inkscape.org/namespaces/inkscape" xmlns:rdf="http://www.w3.org/1999/02/22-rdf-syntax-ns#" xmlns:sodipodi="http://sodipodi.sourceforge.net/DTD/sodipodi-0.dtd" xmlns:svg="http://www.w3.org/2000/svg" xml:space="preserve" width="1000" height="1000" version="1.1" style="clip-rule:evenodd;fill-rule:evenodd;image-rendering:optimizeQuality;shape-rendering:geometricPrecision;text-rendering:geometricPrecision" viewBox="0 0 1000 1000" id="svg10" sodipodi:docname="percent.svg" inkscape:version="1.1.1 (3bf5ae0d25, 2021-09-20)"><svg:metadata id="metadata14"><rdf:RDF><cc:Work rdf:about=""><dc:format>image/svg+xml</dc:format><dc:type rdf:resource="http://purl.org/dc/dcmitype/StillImage" /><dc:title /></cc:Work></rdf:RDF></svg:metadata><sodipodi:namedview pagecolor="#ffffff" bordercolor="#666666" borderopacity="1" objecttolerance="10" gridtolerance="10" guidetolerance="10" inkscape:pageopacity="0" inkscape:pageshadow="2" inkscape:window-width="1920" inkscape:window-height="1129" id="namedview12" showgrid="false" inkscape:zoom="0.84890884" inkscape:cx="165.50658" inkscape:cy="511.24453" inkscape:window-x="0" inkscape:window-y="0" inkscape:window-maximized="1" inkscape:current-layer="svg10" showguides="true" inkscape:guide-bbox="true" inkscape:document-rotation="0" inkscape:pagecheckerboard="0"><sodipodi:guide position="0,1000" orientation="0,1" id="guide16" inkscape:label="" inkscape:locked="true" inkscape:color="rgb(0,0,255)" /><sodipodi:guide position="1763.3122,2036.1693" orientation="1000,0" id="guide18" /><sodipodi:guide position="0,200" orientation="0,1" id="guide20" inkscape:label="base" inkscape:locked="true" inkscape:color="rgb(0,0,255)" /><inkscape:grid type="xygrid" id="grid24" originx="-473.37552" originy="-489.69235" /><sodipodi:guide position="0,0" orientation="0,1" id="guide34" inkscape:label="bottom" inkscape:locked="true" inkscape:color="rgb(0,0,255)" /><sodipodi:guide position="225.05109,1693.3186" orientation="0,1" id="guide44" inkscape:label="" inkscape:locked="false" inkscape:color="rgb(0,0,255)" /><sodipodi:guide position="0,900" orientation="0,1" id="guide46" inkscape:label="" inkscape:locked="true" inkscape:color="rgb(0,0,255)" /><sodipodi:guide position="407.78473,489.14293" orientation="1,0" id="guide841" inkscape:label="width" />    <sodipodi:guide position="-210.85892,799.74293" orientation="0,-1" id="guide856" /></sodipodi:namedview>
 <svg:defs id="defs4"><inkscape:path-effect effect="fillet_chamfer" id="path-effect1242" is_visible="true" lpeversion="1" satellites_param="F,0,0,1,0,12.736057,0,1 @ F,0,1,1,0,12.736057,0,1 @ F,0,0,1,0,0,0,1 @ F,0,1,1,0,12.736057,0,1 @ F,0,1,1,0,12.736057,0,1 @ F,0,0,1,0,0,0,1 | F,0,0,1,0,0,0,1 @ F,0,0,1,0,0,0,1 @ F,0,0,1,0,0,0,1 @ F,0,0,1,0,0,0,1 @ F,0,0,1,0,0,0,1 @ F,0,0,1,0,0,0,1 @ F,0,0,1,0,0,0,1 @ F,0,0,1,0,0,0,1 | F,0,0,1,0,0,0,1 @ F,0,0,1,0,0,0,1 @ F,0,0,1,0,0,0,1 @ F,0,0,1,0,0,0,1 @ F,0,0,1,0,0,0,1 @ F,0,0,1,0,0,0,1 @ F,0,0,1,0,0,0,1 @ F,0,0,1,0,0,0,1" unit="px" method="auto" mode="F" radius="0" chamfer_steps="1" flexible="false" use_knot_distance="true" apply_no_radius="true" apply_with_radius="true" only_selected="false" hide_knots="false" /><inkscape:path-effect effect="fillet_chamfer" id="path-effect860" is_visible="true" lpeversion="1" satellites_param="F,0,1,1,0,20.11581,0,1 @ F,0,1,1,0,20.11581,0,1 @ F,0,0,1,0,0,0,1 @ F,0,1,1,0,20.11581,0,1 @ F,0,1,1,0,20.11581,0,1 @ F,0,0,1,0,0,0,1 | F,0,0,1,0,0,0,1 @ F,0,0,1,0,0,0,1 @ F,0,0,1,0,0,0,1 @ F,0,0,1,0,0,0,1 @ F,0,0,1,0,0,0,1 @ F,0,0,1,0,0,0,1 @ F,0,0,1,0,0,0,1 @ F,0,0,1,0,0,0,1 | F,0,0,1,0,0,0,1 @ F,0,0,1,0,0,0,1 @ F,0,0,1,0,0,0,1 @ F,0,0,1,0,0,0,1 @ F,0,0,1,0,0,0,1 @ F,0,0,1,0,0,0,1 @ F,0,0,1,0,0,0,1 @ F,0,0,1,0,0,0,1" unit="px" method="auto" mode="F" radius="0" chamfer_steps="1" flexible="false" use_knot_distance="true" apply_no_radius="true" apply_with_radius="true" only_selected="true" hide_knots="false" /><inkscape:path-effect effect="spiro" id="path-effect862" is_visible="true" lpeversion="1" /><inkscape:path-effect effect="spiro" id="path-effect857" is_visible="true" lpeversion="1" /><inkscape:path-effect effect="spiro" id="path-effect137" is_visible="true" lpeversion="1" /><inkscape:path-effect effect="spiro" id="path-effect133" is_visible="true" lpeversion="1" /><inkscape:path-effect effect="spiro" id="path-effect114" is_visible="true" lpeversion="1" /><inkscape:path-effect effect="spiro" id="path-effect853" is_visible="true" lpeversion="1" /><inkscape:path-effect effect="spiro" id="path-effect928" is_visible="true" lpeversion="1" /><inkscape:path-effect effect="spiro" id="path-effect921" is_visible="true" lpeversion="1" /><inkscape:path-effect effect="spiro" id="path-effect917" is_visible="true" lpeversion="1" /><inkscape:path-effect effect="spiro" id="path-effect849" is_visible="true" lpeversion="1" /><inkscape:path-effect effect="spiro" id="path-effect851" is_visible="true" lpeversion="1" />
  <svg:style type="text/css" id="style2">
   
    .fil0 {fill:#EF7F1A;fill-rule:nonzero}
   
  </svg:style>
 <inkscape:path-effect effect="spiro" id="path-effect1214" is_visible="true" lpeversion="1" /><inkscape:path-effect effect="spiro" id="path-effect1195" is_visible="true" lpeversion="1" /><inkscape:path-effect effect="spiro" id="path-effect992" is_visible="true" lpeversion="1" /><inkscape:path-effect effect="spiro" id="path-effect1060" is_visible="true" lpeversion="1" /><inkscape:path-effect effect="spiro" id="path-effect1047" is_visible="true" lpeversion="1" /><inkscape:path-effect effect="spiro" id="path-effect1085" is_visible="true" lpeversion="1" /><inkscape:path-effect effect="spiro" id="path-effect1286" is_visible="true" lpeversion="1" /><inkscape:path-effect effect="spiro" id="path-effect117" is_visible="true" lpeversion="1" /></svg:defs>
 
<svg:g id="g892" transform="matrix(1.2177554,0,0,1.2177554,-193.31187,-57.971742)" /><svg:g id="path860"><svg:path style="color:#000000;clip-rule:nonzero;fill:#1a5fb4;fill-rule:nonzero;stroke-linecap:round;stroke-linejoin:round;-inkscape-stroke:none;paint-order:fill stroke markers;shape-rendering:auto" d="M 265.24023,132.21484 C 245.62617,132.94167000000002 228.38891,147.15731 224.48633,167.01758 C 218.12511,199.38988 210.9208,231.59362000000002 203.05469,263.63477 C 195.15045999999998,244.26158 182.24045999999998,227.12558 165.25195,214.3457 C 140.51569,195.73745 109.34451999999999,187.70395 78.69531199999999,192.03710999999998 C 48.04611199999999,196.37026999999998 20.325050999999988,212.73054 1.7167968999999914,237.46679999999998 C -16.89145700000001,262.20306 -24.92690500000001,293.37424 -20.593750000000007,324.02344 C -16.260594000000008,354.67264 0.09967330999999291,382.39369999999997 24.835936999999994,401.00194999999997 C 49.57220199999999,419.61020999999994 80.74337499999999,427.64369999999997 111.39257999999998,423.31055 C 130.62609999999998,420.59132999999997 148.70049999999998,413.12739 164.09960999999998,401.83788999999996 C 153.31285999999997,435.69692 141.78238,469.31764 129.30664,502.58984 C 93.23257899999999,598.7976699999999 50.14805799999999,692.38479 0.515625,782.3515600000001 C -4.9911125,792.3334100000001 -6.4431966,805.57518 -1.859375,816.99414 C 2.7244466000000003,828.4131 12.993039,837.02666 23.927734,840.39844 L 124.09375,871.2832 C 146.17498,878.09209 172.81571,861.693 176.82031,839.04297 C 183.8317,799.3865099999999 192.27001,759.9905699999999 201.81445000000002,720.86328 C 209.79259000000002,739.3201700000001 222.37287000000003,755.6308200000001 238.70898000000003,767.91992 C 263.44525000000004,786.52817 294.61447000000004,794.56167 325.26367000000005,790.22852 C 355.91287000000005,785.89536 383.63589,769.53509 402.24414,744.79883 C 420.85239,720.0625699999999 428.88589,688.89334 424.55273,658.24414 C 420.21958,627.5949400000001 403.85931,599.87193 379.12305,581.26367 C 354.38678999999996,562.65542 323.21560999999997,554.62192 292.56640999999996,558.9550800000001 C 274.33788999999996,561.5322100000001 257.20179999999993,568.4500700000001 242.34569999999997,578.7675800000001 C 258.2863,530.28326 276.135,482.42689000000007 295.96484,435.40430000000003 C 328.88782,357.3339 367.09424,281.48506000000003 410.23046999999997,208.55859000000004 C 415.83540999999997,199.08283000000003 418.35191,184.81501000000003 412.54101999999995,172.30469000000005 C 406.73011999999994,159.79436000000004 394.11330999999996,152.46753000000004 383.21093999999994,150.68164000000004 L 273.75977,132.75195 C 270.8927,132.28231 268.04224,132.11101 265.24023,132.21483999999998 L 265.24023,132.21484 M 280.04492,194.58203 L 342.99414,204.89258 C 304.82262000000003,271.85008 270.62894,341.07104000000004 240.67969000000002,412.08984 C 187.05668000000003,539.24632 147.23533000000003,672.14843 121.72266000000002,807.7656199999999 L 64.503906,790.12109 C 110.71171,704.12472 151.21074,615.06763 185.48633,523.65625 C 225.59995,416.6751 257.17466,306.52221 280.04492,194.58203 M 92.546875,250.97266 C 105.40919,250.53055999999998 119.05142000000001,254.6743 129.18164000000002,262.29492 C 140.75903000000002,271.00419999999997 149.24342000000001,285.37977 151.27148000000003,299.72461 C 153.29954000000004,314.06944999999996 149.13311000000002,330.23510999999996 140.42383000000004,341.8125 C 131.71455000000003,353.38989 117.33898000000003,361.87428 102.99414000000004,363.90234 C 88.64929700000005,365.93039999999996 72.48364200000005,361.76397 60.90625000000004,353.05469 C 49.328859000000044,344.34541 40.844467000000044,329.96789 38.81640600000004,315.62305 C 36.78834600000005,301.27821 40.95478300000004,285.11449999999996 49.664062000000044,273.53711 C 58.373342000000044,261.95972 72.74890800000004,253.47532999999999 87.09375000000004,251.44726999999997 C 88.88685500000004,251.19375999999997 90.70940200000004,251.03580999999997 92.54687500000004,250.97265999999996 L 92.546875,250.97266 M 306.41797,617.89062 C 319.28028,617.44853 332.92252,621.59227 343.05273,629.21289 C 354.63012,637.92217 363.11451999999997,652.29774 365.14258,666.6425800000001 C 367.17064,680.98742 363.0042,697.15308 354.29492,708.7304700000001 C 345.58564,720.3078600000001 331.21007,728.7922500000001 316.86523,730.8203100000001 C 302.52039,732.84837 286.35473,728.6819300000001 274.77734,719.97266 C 263.19995,711.26338 254.71555999999998,696.88586 252.68749999999997,682.54102 C 250.65943999999996,668.19617 254.82587999999998,652.03247 263.53515999999996,640.45508 C 272.24443999999994,628.8776899999999 286.62194999999997,620.39329 300.9668,618.36523 C 302.75989999999996,618.11173 304.5805,617.95378 306.41796999999997,617.89062 L 306.41797,617.89062" id="path30234" /></svg:g></svg:svg>

<svg:svg xmlns:cc="http://creativecommons.org/ns#" xmlns:dc="http://purl.org/dc/elements/1.1/" xmlns:inkscape="http://www.inkscape.org/namespaces/inkscape" xmlns:rdf="http://www.w3.org/1999/02/22-rdf-syntax-ns#" xmlns:sodipodi="http://sodipodi.sourceforge.net/DTD/sodipodi-0.dtd" xmlns:svg="http://www.w3.org/2000/svg" xml:space="preserve" width="1000" height="1000" version="1.1" style="clip-rule:evenodd;fill-rule:evenodd;image-rendering:optimizeQuality;shape-rendering:geometricPrecision;text-rendering:geometricPrecision" viewBox="0 0 1000 1000" id="svg10" sodipodi:docname="percent.svg" inkscape:version="1.1.1 (3bf5ae0d25, 2021-09-20)"><svg:metadata id="metadata14"><rdf:RDF><cc:Work rdf:about=""><dc:format>image/svg+xml</dc:format><dc:type rdf:resource="http://purl.org/dc/dcmitype/StillImage" /><dc:title /></cc:Work></rdf:RDF></svg:metadata><sodipodi:namedview pagecolor="#ffffff" bordercolor="#666666" borderopacity="1" objecttolerance="10" gridtolerance="10" guidetolerance="10" inkscape:pageopacity="0" inkscape:pageshadow="2" inkscape:window-width="1920" inkscape:window-height="1129" id="namedview12" showgrid="false" inkscape:zoom="0.84890884" inkscape:cx="165.50658" inkscape:cy="511.24453" inkscape:window-x="0" inkscape:window-y="0" inkscape:window-maximized="1" inkscape:current-layer="svg10" showguides="true" inkscape:guide-bbox="true" inkscape:document-rotation="0" inkscape:pagecheckerboard="0"><sodipodi:guide position="0,1000" orientation="0,1" id="guide16" inkscape:label="" inkscape:locked="true" inkscape:color="rgb(0,0,255)" /><sodipodi:guide position="1763.3122,2036.1693" orientation="1000,0" id="guide18" /><sodipodi:guide position="0,200" orientation="0,1" id="guide20" inkscape:label="base" inkscape:locked="true" inkscape:color="rgb(0,0,255)" /><inkscape:grid type="xygrid" id="grid24" originx="-473.37552" originy="-489.69235" /><sodipodi:guide position="0,0" orientation="0,1" id="guide34" inkscape:label="bottom" inkscape:locked="true" inkscape:color="rgb(0,0,255)" /><sodipodi:guide position="225.05109,1693.3186" orientation="0,1" id="guide44" inkscape:label="" inkscape:locked="false" inkscape:color="rgb(0,0,255)" /><sodipodi:guide position="0,900" orientation="0,1" id="guide46" inkscape:label="" inkscape:locked="true" inkscape:color="rgb(0,0,255)" /><sodipodi:guide position="407.78473,489.14293" orientation="1,0" id="guide841" inkscape:label="width" />    <sodipodi:guide position="-210.85892,799.74293" orientation="0,-1" id="guide856" /></sodipodi:namedview>
 <svg:defs id="defs4"><inkscape:path-effect effect="fillet_chamfer" id="path-effect1242" is_visible="true" lpeversion="1" satellites_param="F,0,0,1,0,12.736057,0,1 @ F,0,1,1,0,12.736057,0,1 @ F,0,0,1,0,0,0,1 @ F,0,1,1,0,12.736057,0,1 @ F,0,1,1,0,12.736057,0,1 @ F,0,0,1,0,0,0,1 | F,0,0,1,0,0,0,1 @ F,0,0,1,0,0,0,1 @ F,0,0,1,0,0,0,1 @ F,0,0,1,0,0,0,1 @ F,0,0,1,0,0,0,1 @ F,0,0,1,0,0,0,1 @ F,0,0,1,0,0,0,1 @ F,0,0,1,0,0,0,1 | F,0,0,1,0,0,0,1 @ F,0,0,1,0,0,0,1 @ F,0,0,1,0,0,0,1 @ F,0,0,1,0,0,0,1 @ F,0,0,1,0,0,0,1 @ F,0,0,1,0,0,0,1 @ F,0,0,1,0,0,0,1 @ F,0,0,1,0,0,0,1" unit="px" method="auto" mode="F" radius="0" chamfer_steps="1" flexible="false" use_knot_distance="true" apply_no_radius="true" apply_with_radius="true" only_selected="false" hide_knots="false" /><inkscape:path-effect effect="fillet_chamfer" id="path-effect860" is_visible="true" lpeversion="1" satellites_param="F,0,1,1,0,20.11581,0,1 @ F,0,1,1,0,20.11581,0,1 @ F,0,0,1,0,0,0,1 @ F,0,1,1,0,20.11581,0,1 @ F,0,1,1,0,20.11581,0,1 @ F,0,0,1,0,0,0,1 | F,0,0,1,0,0,0,1 @ F,0,0,1,0,0,0,1 @ F,0,0,1,0,0,0,1 @ F,0,0,1,0,0,0,1 @ F,0,0,1,0,0,0,1 @ F,0,0,1,0,0,0,1 @ F,0,0,1,0,0,0,1 @ F,0,0,1,0,0,0,1 | F,0,0,1,0,0,0,1 @ F,0,0,1,0,0,0,1 @ F,0,0,1,0,0,0,1 @ F,0,0,1,0,0,0,1 @ F,0,0,1,0,0,0,1 @ F,0,0,1,0,0,0,1 @ F,0,0,1,0,0,0,1 @ F,0,0,1,0,0,0,1" unit="px" method="auto" mode="F" radius="0" chamfer_steps="1" flexible="false" use_knot_distance="true" apply_no_radius="true" apply_with_radius="true" only_selected="true" hide_knots="false" /><inkscape:path-effect effect="spiro" id="path-effect862" is_visible="true" lpeversion="1" /><inkscape:path-effect effect="spiro" id="path-effect857" is_visible="true" lpeversion="1" /><inkscape:path-effect effect="spiro" id="path-effect137" is_visible="true" lpeversion="1" /><inkscape:path-effect effect="spiro" id="path-effect133" is_visible="true" lpeversion="1" /><inkscape:path-effect effect="spiro" id="path-effect114" is_visible="true" lpeversion="1" /><inkscape:path-effect effect="spiro" id="path-effect853" is_visible="true" lpeversion="1" /><inkscape:path-effect effect="spiro" id="path-effect928" is_visible="true" lpeversion="1" /><inkscape:path-effect effect="spiro" id="path-effect921" is_visible="true" lpeversion="1" /><inkscape:path-effect effect="spiro" id="path-effect917" is_visible="true" lpeversion="1" /><inkscape:path-effect effect="spiro" id="path-effect849" is_visible="true" lpeversion="1" /><inkscape:path-effect effect="spiro" id="path-effect851" is_visible="true" lpeversion="1" />
  <svg:style type="text/css" id="style2">
   
    .fil0 {fill:#EF7F1A;fill-rule:nonzero}
   
  </svg:style>
 <inkscape:path-effect effect="spiro" id="path-effect1214" is_visible="true" lpeversion="1" /><inkscape:path-effect effect="spiro" id="path-effect1195" is_visible="true" lpeversion="1" /><inkscape:path-effect effect="spiro" id="path-effect992" is_visible="true" lpeversion="1" /><inkscape:path-effect effect="spiro" id="path-effect1060" is_visible="true" lpeversion="1" /><inkscape:path-effect effect="spiro" id="path-effect1047" is_visible="true" lpeversion="1" /><inkscape:path-effect effect="spiro" id="path-effect1085" is_visible="true" lpeversion="1" /><inkscape:path-effect effect="spiro" id="path-effect1286" is_visible="true" lpeversion="1" /><inkscape:path-effect effect="spiro" id="path-effect117" is_visible="true" lpeversion="1" /></svg:defs>
 
<svg:g id="g892" transform="matrix(1.2177554,0,0,1.2177554,-193.31187,-57.971742)" /><svg:g id="path860"><svg:path style="color:#000000;clip-rule:nonzero;fill:#1a5fb4;fill-rule:nonzero;stroke-linecap:round;stroke-linejoin:round;-inkscape-stroke:none;shape-rendering:auto" d="m 265.24023,132.21484 c -19.61406,0.72683 -36.85132,14.94247 -40.7539,34.80274 -6.36122,32.3723 -13.56553,64.57604 -21.43164,96.61719 -7.90423,-19.37319 -20.81423,-36.50919 -37.80274,-49.28907 -24.73626,-18.60825 -55.90743,-26.64175 -86.556638,-22.30859 -30.6492,4.33316 -58.370261,20.69343 -76.9785151,45.42969 -18.6082539,24.73626 -26.6437019,55.90744 -22.3105469,86.55664 4.333156,30.6492 20.69342331,58.37026 45.429687,76.97851 24.736265,18.60826 55.907438,26.64175 86.556643,22.3086 19.23352,-2.71922 37.30792,-10.18316 52.70703,-21.47266 -10.78675,33.85903 -22.31723,67.47975 -34.79297,100.75195 -36.074061,96.20783 -79.158582,189.79495 -128.791015,279.76172 -5.5067375,9.98185 -6.9588216,23.22362 -2.375,34.64258 4.5838216,11.41896 14.852414,20.03252 25.787109,23.4043 L 124.09375,871.2832 c 22.08123,6.80889 48.72196,-9.5902 52.72656,-32.24023 7.01139,-39.65646 15.4497,-79.0524 24.99414,-118.17969 7.97814,18.45689 20.55842,34.76754 36.89453,47.05664 24.73627,18.60825 55.90549,26.64175 86.55469,22.3086 30.6492,-4.33316 58.37222,-20.69343 76.98047,-45.42969 18.60825,-24.73626 26.64175,-55.90549 22.30859,-86.55469 -4.33315,-30.6492 -20.69342,-58.37221 -45.42968,-76.98047 -24.73626,-18.60825 -55.90744,-26.64175 -86.55664,-22.30859 -18.22852,2.57713 -35.36461,9.49499 -50.22071,19.8125 15.9406,-48.48432 33.7893,-96.34069 53.61914,-143.36328 32.92298,-78.0704 71.1294,-153.91924 114.26563,-226.84571 5.60494,-9.47576 8.12144,-23.74358 2.31055,-36.2539 -5.8109,-12.51033 -18.42771,-19.83716 -29.33008,-21.62305 L 273.75977,132.75195 c -2.86707,-0.46964 -5.71753,-0.64094 -8.51954,-0.53711 z m 14.80469,62.36719 62.94922,10.31055 c -38.17152,66.9575 -72.3652,136.17846 -102.31445,207.19726 -53.62301,127.15648 -93.44436,260.05859 -118.95703,395.67578 L 64.503906,790.12109 C 110.71171,704.12472 151.21074,615.06763 185.48633,523.65625 225.59995,416.6751 257.17466,306.52221 280.04492,194.58203 Z M 92.546875,250.97266 c 12.862315,-0.4421 26.504545,3.70164 36.634765,11.32226 11.57739,8.70928 20.06178,23.08485 22.08984,37.42969 2.02806,14.34484 -2.13837,30.5105 -10.84765,42.08789 -8.70928,11.57739 -23.08485,20.06178 -37.42969,22.08984 -14.344843,2.02806 -30.510498,-2.13837 -42.08789,-10.84765 -11.577391,-8.70928 -20.061783,-23.0868 -22.089844,-37.43164 -2.02806,-14.34484 2.138377,-30.50855 10.847656,-42.08594 8.70928,-11.57739 23.084846,-20.06178 37.429688,-22.08984 1.793105,-0.25351 3.615652,-0.41146 5.453125,-0.47461 z M 306.41797,617.89062 c 12.86231,-0.44209 26.50455,3.70165 36.63476,11.32227 11.57739,8.70928 20.06179,23.08485 22.08985,37.42969 2.02806,14.34484 -2.13838,30.5105 -10.84766,42.08789 -8.70928,11.57739 -23.08485,20.06178 -37.42969,22.08984 -14.34484,2.02806 -30.5105,-2.13838 -42.08789,-10.84765 -11.57739,-8.70928 -20.06178,-23.0868 -22.08984,-37.43164 -2.02806,-14.34485 2.13838,-30.50855 10.84766,-42.08594 8.70928,-11.57739 23.08679,-20.06179 37.43164,-22.08985 1.7931,-0.2535 3.6137,-0.41145 5.45117,-0.47461 z" id="path30146" /></svg:g></svg:svg>
